X:93
T:93 Die Elfen Waltz
C:Michael Turner's MS
I:abc2nwc
M:3/4
L:1/8
K:A
E2A2c2|d4G2|A2c2f2|e6|E2A2c2|d4G2|B2A2c2|E6|
E2A2c2|d4G2|A2c2f2|e6|e2d2c2|^A2B3c|d2E3G| A2z2z2:|
e ze zf z|e ze za z|a2g2f2|e6|e ze zf z|e ze za z|a2g2f2|e6|
E2A2c2|d4G2|A2c2f2|e6|E2A2c2|D2F2B2|B2d2g2|a6:|

